src/standard/diagrams/planning.svg

<svg xmlns="http://www.w3.org/2000/svg" viewBox="0 0 36 36">
  <path d="M31 25.38c-.92 0-.55 1.28-.62 2h-4.76v-4.76H29a.62.62 0 0 0 0-1.24h-4a.62.62 0 0 0-.62.62v6a.62.62 0 0 0 .62.62h6a.62.62 0 0 0 .62-.62v-2a.62.62 0 0 0-.62-.62Z"/>
  <path d="M27.44 24.56c-.56-.58-1.46.32-.88.88l1 1a.61.61 0 0 0 .88 0l3-3c.58-.56-.32-1.47-.88-.88L28 25.12ZM31 4.38h-6a.62.62 0 0 0-.62.62v13a.62.62 0 0 0 .62.62h6a.62.62 0 0 0 .62-.62V5a.62.62 0 0 0-.62-.62Zm-.62 13h-4.76V5.62h4.76ZM11 4.38H5a.62.62 0 0 0-.62.62v14a.62.62 0 0 0 .62.62h6a.62.62 0 0 0 .62-.62V5a.62.62 0 0 0-.62-.62Zm-.62 14H5.62V5.62h4.76Zm.62 3H5a.62.62 0 0 0-.62.62v6a.62.62 0 0 0 .62.62h6a.62.62 0 0 0 .62-.62v-6a.62.62 0 0 0-.62-.62Zm-.62 6H5.62v-4.76h4.76Zm10.62-11h-6a.62.62 0 0 0-.62.62v14a.62.62 0 0 0 .62.62h6a.62.62 0 0 0 .62-.62V17a.62.62 0 0 0-.62-.62Zm-.62 14h-4.76V17.62h4.76Zm.62-23h-6a.62.62 0 0 0-.62.62v6a.62.62 0 0 0 .62.62h6a.62.62 0 0 0 .62-.62V8a.62.62 0 0 0-.62-.62Zm-.62 6h-4.76V8.62h4.76Z"/>
</svg>

<svg id="fc7cffbd-bc9f-4e74-b356-da95d768c47a" data-name="Icon" xmlns="http://www.w3.org/2000/svg" viewBox="0 0 36 36">
  <g>
    <path d="M31,25.38c-.92,0-.55,1.28-.62,2H25.62V22.62H29a.62.62,0,0,0,0-1.24H25a.62.62,0,0,0-.62.62v6a.62.62,0,0,0,.62.62h6a.62.62,0,0,0,.62-.62V26A.62.62,0,0,0,31,25.38Z"/>
    <path d="M27.44,24.56c-.56-.58-1.46.32-.88.88l1,1a.61.61,0,0,0,.88,0l3-3c.58-.56-.32-1.47-.88-.88L28,25.12Z"/>
    <path d="M31,4.38H25a.62.62,0,0,0-.62.62V18a.62.62,0,0,0,.62.62h6a.62.62,0,0,0,.62-.62V5A.62.62,0,0,0,31,4.38Zm-.62,13H25.62V5.62h4.76Z"/>
    <path d="M11,4.38H5A.62.62,0,0,0,4.38,5V19a.62.62,0,0,0,.62.62h6a.62.62,0,0,0,.62-.62V5A.62.62,0,0,0,11,4.38Zm-.62,14H5.62V5.62h4.76Z"/>
    <path d="M11,21.38H5a.62.62,0,0,0-.62.62v6a.62.62,0,0,0,.62.62h6a.62.62,0,0,0,.62-.62V22A.62.62,0,0,0,11,21.38Zm-.62,6H5.62V22.62h4.76Z"/>
    <path d="M21,16.38H15a.62.62,0,0,0-.62.62V31a.62.62,0,0,0,.62.62h6a.62.62,0,0,0,.62-.62V17A.62.62,0,0,0,21,16.38Zm-.62,14H15.62V17.62h4.76Z"/>
    <path d="M21,7.38H15a.62.62,0,0,0-.62.62v6a.62.62,0,0,0,.62.62h6a.62.62,0,0,0,.62-.62V8A.62.62,0,0,0,21,7.38Zm-.62,6H15.62V8.62h4.76Z"/>
  </g>
</svg>
